X: 52
T: No_16_Dancing_Song_from_the_East_God_(d).krn
N: Derived from No_16_Dancing_Song_from_the_East_God_(d).krn
%%abc-version 2.0
%%abcx-abcm2ps-target-version 5.9.1 (29 Sep 2008)
%%abc-creator hum2abc beta
%%abcx-conversion-date 2019/03/15 08:35:44
%%humdrum-veritas 1732081710
%%humdrum-veritas-data 1171507816
%%linebreak <none>
%%barnumbers 0
L: 1/8
M: 3/8
K: Bb clef=bass
[K:clef=bass][M:3/8]z2C | 
CCC ||  
[M:3/4]C4CC | 
B,4G,F, ||  
[M:2/4]F,3C ||  
[M:3/8]CCC ||  
[M:3/4]B,4B,B, | 
G,4F,F, | 
F,3F, D,F, | 
F,3z G,G, | 
F,4D,C, ||  
[M:2/4]C,3D, ||  
[M:3/8]C,D,C, ||  
[M:3/4]B,,4B,,B,, | 
F,,4z2 |]  



